X: 34
T:Farewell To Newcastle... JaW.034
M:6/8
L:1/8
Q:1/4=70
C:"..Our Time Is But Short, etc."
S:James Winder Ms, Lancashire, 1835-41
R:Air
O:England
A:Wyresdale,Lancashire
H:1/8
Z:vmp.Chris Partington, Aug 2004
K:G
f|gdc BGB|Ggf "qu"g2f|gdc BGB|Ggf "qu"g2|!
|f|gag agf|efg f2e|def gdc|BGB d2B|!
A3 B(AB)|c3 BGB|dBd e3|f2"qu's"(e/f/) gdc|BcAG2|]
